X:132
T: Saw Ye a Lassie of Fifteen
N: O'Farrell's Pocket Companion v.2 (Sky ed. p.71)
M: 6/8
L: 1/8
Q: 320
R: jig
K: D
A|FGA ABA|d2A A2G|FGA ABA|e2E E2A|
FGA ABA|d2A e2A|fed ABc|dAF D2 :|
g|fed fed|e2A A2d|fed fed|g2f e2g|
fed gfe|agf bag|fed ABc|dAF D2 :|
